assets/img/blocks/form/calendar.svg

<?xml version="1.0" encoding="UTF-8"?>
<svg width="17px" height="18px" viewBox="0 0 17 18" version="1.1" xmlns="http://www.w3.org/2000/svg" xmlns:xlink="http://www.w3.org/1999/xlink">
    <!-- Generator: Sketch 58 (84663) - https://sketch.com -->
    <title>CAlender</title>
    <desc>Created with Sketch.</desc>
    <g id="Page-1" stroke="none" stroke-width="1" fill="none" fill-rule="evenodd">
        <path d="M4.82143432,0 C5.70536394,0 6.42857909,0.723215148 6.42857909,1.60714477 L6.42857909,2.57143164 L10.2857265,2.57143164 L10.2857265,1.60714477 C10.2857265,0.723215148 11.0089417,0 11.8928713,0 L12.5357292,0 C13.4196589,0 14.142874,0.723215148 14.142874,1.60714477 L14.142874,2.57143164 L15.4285898,2.57143164 C16.1317157,2.57143164 16.7143056,3.15402162 16.7143056,3.85714746 L16.7143056,16.7143056 C16.7143056,17.4174315 16.1317157,18.0000215 15.4285898,18.0000215 L1.28571582,18.0000215 C0.58258998,18.0000215 0,17.4174315 0,16.7143056 L0,3.85714746 C0,3.15402162 0.58258998,2.57143164 1.28571582,2.57143164 L2.57143164,2.57143164 L2.57143164,1.60714477 C2.57143164,0.723215148 3.29464678,0 4.17857641,0 L4.82143432,0 Z M4.17857641,13.821445 L1.28571582,13.821445 L1.28571582,16.7143056 L4.17857641,16.7143056 L4.17857641,13.821445 Z M8.03572387,13.821445 L4.82143432,13.821445 L4.82143432,16.7143056 L8.03572387,16.7143056 L8.03572387,13.821445 Z M11.8928713,13.821445 L8.67858177,13.821445 L8.67858177,16.7143056 L11.8928713,16.7143056 L11.8928713,13.821445 Z M15.4285898,13.821445 L12.5357292,13.821445 L12.5357292,16.7143056 L15.4285898,16.7143056 L15.4285898,13.821445 Z M4.17857641,9.96429759 L1.28571582,9.96429759 L1.28571582,13.1785871 L4.17857641,13.1785871 L4.17857641,9.96429759 Z M8.03572387,9.96429759 L4.82143432,9.96429759 L4.82143432,13.1785871 L8.03572387,13.1785871 L8.03572387,9.96429759 Z M11.8928713,9.96429759 L8.67858177,9.96429759 L8.67858177,13.1785871 L11.8928713,13.1785871 L11.8928713,9.96429759 Z M15.4285898,9.96429759 L12.5357292,9.96429759 L12.5357292,13.1785871 L15.4285898,13.1785871 L15.4285898,9.96429759 Z M4.17857641,6.42857909 L1.28571582,6.42857909 L1.28571582,9.32143968 L4.17857641,9.32143968 L4.17857641,6.42857909 Z M8.03572387,6.42857909 L4.82143432,6.42857909 L4.82143432,9.32143968 L8.03572387,9.32143968 L8.03572387,6.42857909 Z M11.8928713,6.42857909 L8.67858177,6.42857909 L8.67858177,9.32143968 L11.8928713,9.32143968 L11.8928713,6.42857909 Z M15.4285898,6.42857909 L12.5357292,6.42857909 L12.5357292,9.32143968 L15.4285898,9.32143968 L15.4285898,6.42857909 Z M4.82143432,1.28571582 L4.17857641,1.28571582 C4.02916217,1.28571582 3.89512881,1.4010724 3.86395506,1.54430682 L3.85714746,1.60714477 L3.85714746,4.50000536 C3.85714746,4.64941961 3.97250404,4.78345297 4.11573846,4.81462671 L4.17857641,4.82143432 L4.82143432,4.82143432 C4.97084856,4.82143432 5.10488192,4.70607774 5.13605567,4.56284331 L5.14286327,4.50000536 L5.14286327,1.60714477 C5.14286327,1.43638564 4.99219345,1.28571582 4.82143432,1.28571582 Z M12.5357292,1.28571582 L11.8928713,1.28571582 C11.7221122,1.28571582 11.5714424,1.43638564 11.5714424,1.60714477 L11.5714424,1.60714477 L11.5714424,4.50000536 C11.5714424,4.6707645 11.7221122,4.82143432 11.8928713,4.82143432 L11.8928713,4.82143432 L12.5357292,4.82143432 C12.7064884,4.82143432 12.8571582,4.6707645 12.8571582,4.50000536 L12.8571582,4.50000536 L12.8571582,1.60714477 C12.8571582,1.43638564 12.7064884,1.28571582 12.5357292,1.28571582 L12.5357292,1.28571582 Z" id="CAlender" fill="#535F6A" fill-rule="nonzero"></path>
    </g>
</svg>

<svg xmlns="http://www.w3.org/2000/svg" width="17" height="18"><path fill="#535F6A" fill-rule="nonzero" d="M4.821 0C5.705 0 6.43.723 6.43 1.607v.964h3.857v-.964c0-.884.723-1.607 1.607-1.607h.643c.884 0 1.607.723 1.607 1.607v.964h1.286c.703 0 1.285.583 1.285 1.286v12.857c0 .703-.582 1.286-1.285 1.286H1.286A1.295 1.295 0 0 1 0 16.714V3.857c0-.703.583-1.286 1.286-1.286H2.57v-.964C2.571.723 3.295 0 4.18 0h.642ZM4.18 13.821H1.286v2.893h2.893v-2.893Zm3.857 0H4.82v2.893h3.215v-2.893Zm3.857 0H8.679v2.893h3.214v-2.893Zm3.536 0h-2.893v2.893h2.893v-2.893ZM4.179 9.964H1.286v3.215h2.893V9.964Zm3.857 0H4.82v3.215h3.215V9.964Zm3.857 0H8.679v3.215h3.214V9.964Zm3.536 0h-2.893v3.215h2.893V9.964ZM4.179 6.43H1.286V9.32h2.893V6.43Zm3.857 0H4.82V9.32h3.215V6.43Zm3.857 0H8.679V9.32h3.214V6.43Zm3.536 0h-2.893V9.32h2.893V6.43ZM4.82 1.286H4.18a.332.332 0 0 0-.315.258l-.007.063V4.5c0 .15.116.283.259.315l.063.006h.642c.15 0 .284-.115.315-.258l.007-.063V1.607a.33.33 0 0 0-.322-.321Zm7.715 0h-.643a.33.33 0 0 0-.322.321V4.5c0 .17.151.321.322.321h.643a.33.33 0 0 0 .321-.321V1.607a.33.33 0 0 0-.321-.321Z"/></svg>
